X:1
T:Baby What You Want Me To Do?
C:1959 - Jimmy Reed
Z:www.realbook.site
L:1/8
M:12/8
I:linebreak $
K:E
V:1 treble nm=" " snm=" "
V:1
 E G2 A |:"E7" B2 B- B3 z2 E ^G2 A | B2 B- B3 z2 E ^G2 A | B3 B3 B3 B2 B- | B2 B A2 B =G2 F E2 E |$ %5
"A7" F- E2 z3 z6 | B6- B3 B2 (B- |"E7" B G2- G3) z6 | z6 z2 G A2 ^A |$ %9
"F#m7" B3 B2 B"B7" =A2 A- A3 |"A7" B2 B A2 A"B7" =G2 F E2 F- | E6 z6 | z6 z2 E G2 A :| %13

